Newaita-dark/apps/24/com.github.dcharles525.pho.svg

<svg height="24" viewBox="0 0 24 24" width="24" xmlns="http://www.w3.org/2000/svg" xmlns:xlink="http://www.w3.org/1999/xlink"><linearGradient id="a"><stop offset="0" stop-opacity=".313726"/><stop offset=".222222" stop-opacity=".27451"/><stop offset="1" stop-opacity="0"/></linearGradient><radialGradient id="b" cx="450.908936" cy="189.579361" gradientTransform="matrix(.00000013 -.0585994 -.105479 -.00000008 30.911658 47.696497)" gradientUnits="userSpaceOnUse" r="21.166656" xlink:href="#a"/><radialGradient id="c" cx="450.908936" cy="189.579361" gradientTransform="matrix(-.00000013 .0585994 .105479 .00000008 -9.577587 -5.645612)" gradientUnits="userSpaceOnUse" r="21.166656" xlink:href="#a"/><radialGradient id="d" cx="450.908936" cy="189.579361" gradientTransform="matrix(-.00000013 -.0585994 .105479 -.00000008 -9.577587 47.696497)" gradientUnits="userSpaceOnUse" r="21.166656" xlink:href="#a"/><radialGradient id="e" cx="450.908936" cy="189.579361" gradientTransform="matrix(.00000013 .0585994 -.105479 .00000008 30.911656 -5.645612)" gradientUnits="userSpaceOnUse" r="21.166656" xlink:href="#a"/><linearGradient id="f" gradientTransform="matrix(.00286287 0 0 .0468795 9.936078 10.079088)" gradientUnits="userSpaceOnUse" x1="255.323059" x2="255.323044" y1="233.5" y2="254.666656"><stop offset="0" stop-opacity=".27451"/><stop offset="1" stop-opacity="0"/></linearGradient><linearGradient id="g" gradientUnits="userSpaceOnUse" x1="11.9074818" x2="11.9074818" y1="21.1090212" y2="2.06272934742"><stop offset="0" stop-color="#66bb6a"/><stop offset="1" stop-color="#81c784"/></linearGradient><path d="m11.164062 21.027344h1.984376v-.996094h-1.984376zm0 0" fill="url(#b)"/><path d="m10.171875 21.027344h-1.984375v.992187h1.984375zm0 0" fill="url(#c)"/><path d="m10.171875 21.027344h-1.984375v-.996094h1.984375zm0 0" fill="url(#d)"/><path d="m11.164062 21.027344h1.984376v.992187h-1.984376zm0 0" fill="url(#e)"/><path d="m10.171875 20.777344h.992187v1.242187h-.992187zm0 0" fill="url(#f)"/><path d="m14.050781 2.421875c-.945312-.546875-2.503906-.039063-3.261719 1.273437-.863281 1.5.8125 4.070313.835938 6.855469-1.371094-2.421875-1.203125-5.488281-2.703125-6.355469-1.3125-.757812-2.914063-.417968-3.460937.527344-.757813 1.3125-.382813 2.304688-.046876 2.8125.335938.511719.335938.511719-.273437.476563-.609375-.039063-1.65625.132812-2.414063 1.445312-.546874.949219-.144531 2.441407 1.273438 3.261719 1.535156.886719 4.371094-1.199219 7.152344-1.011719-2.464844 1.5625-5.75 1.320313-6.652344 2.878907-.753906 1.3125-.417969 2.914062.527344 3.460937 1.3125.757813 2.304687.382813 2.816406.046875.507812-.335938.507812-.335938.472656.273438-.035156.609374.136719 1.65625 1.449219 2.414062.945313.546875 2.4375.148438 3.257813-1.273438.914062-1.582031-1.335938-4.554687-.984376-7.421874 1.738282 2.308593 1.269532 6.007812 2.851563 6.921874 1.421875.820313 2.917969.417969 3.464844-.527343.753906-1.3125.382812-2.304688.042969-2.816407-.335938-.507812-.335938-.507812.273437-.472656.613281.039063 1.660156-.136718 2.414063-1.445312.546874-.949219.039062-2.503906-1.273438-3.261719-1.558594-.902344-4.28125.953125-7.199219.832031 2.316407-1.554687 5.816407-1.167968 6.699219-2.699218.820312-1.421876.421875-2.914063-.527344-3.460938-1.3125-.757812-2.304687-.382812-2.8125-.046875-.511718.335937-.511718.335937-.472656-.273437.035156-.609376-.136719-1.65625-1.449219-2.414063zm0 0" fill="url(#g)"/><path d="m13.195312 2.203125c-.863281 0-1.847656.527344-2.40625 1.492187-.195312.339844-.261718.734376-.246093 1.171876.015625-.339844.089843-.652344.246093-.925782.757813-1.3125 2.316407-1.820312 3.261719-1.273437 1.136719.65625 1.417969 1.527343 1.449219 2.144531.03125-.609375-.152344-1.640625-1.449219-2.390625-.25-.144531-.546875-.214844-.855469-.21875zm-5.800781 1.578125c-.835937-.003906-1.589843.347656-1.933593.941406-.355469.617188-.460938 1.167969-.4375 1.625.019531-.402344.144531-.867187.4375-1.378906.546874-.945312 2.148437-1.285156 3.460937-.527344 1.5.867188 1.332031 3.933594 2.703125 6.359375 0-.085937 0-.175781-.003906-.261719-1.367188-2.421874-1.203125-5.480468-2.699219-6.34375-.492187-.285156-1.023437-.414062-1.527344-.414062zm9.867188.929688c-.5625.007812-1.003907.207031-1.289063.398437-.351562.230469-.460937.300781-.484375.128906-.023437.449219.023438.421875.484375.117188.507813-.335938 1.5-.710938 2.8125.046875.5625.324218.933594.984375.96875 1.765625.039063-.886719-.347656-1.652344-.96875-2.011719-.574218-.332031-1.085937-.449219-1.523437-.445312zm-12.238281 3.296874c-.621094-.007812-1.585938.21875-2.296876 1.449219-.175781.304688-.253906.664063-.230468 1.039063.015625-.285156.09375-.554688.230468-.789063.757813-1.3125 1.804688-1.484375 2.414063-1.449219.5.03125.589844.035157.421875-.242187-.074219.015625-.210938.007813-.421875-.003906-.039063-.003907-.078125-.003907-.117187-.003907zm13.75 2.226563c-1.5-.003906-3.5625 1.050781-5.761719 1.085937-.136719.074219-.269531.15625-.398438.242188 2.917969.121094 5.640625-1.734375 7.199219-.832031.914062.527343 1.441406 1.445312 1.488281 2.273437.054688-.886718-.480469-1.9375-1.488281-2.519531-.304688-.175781-.652344-.246094-1.039062-.25zm-8.011719 1.707031c-.003907 0-.007813 0-.007813 0-2.410156 1.308594-5.398437 1.167969-6.253906 2.644532-.308594.535156-.433594 1.121093-.410156 1.660156.019531-.46875.148437-.957032.410156-1.414063.902344-1.558593 4.1875-1.3125 6.652344-2.878906-.128906-.007813-.261719-.011719-.390625-.011719zm1.238281.902344c-.046875 2.15625 1.175781 4.316406 1.242188 5.859375.070312-1.5-1.195313-3.671875-1.242188-5.859375zm6.25 2.589844c-.148438.027344-.070312.144531.148438.480468.179687.269532.367187.671876.394531 1.1875.03125-.632812-.1875-1.125-.394531-1.4375-.058594-.09375-.109376-.167968-.148438-.230468zm-9.925781 2.777344c0 .046874-.003907.097656-.007813.15625-.003906.082031-.003906.171874 0 .269531 0-.007813 0-.015625 0-.023438.011719-.191406.019532-.324219.007813-.402343zm0 0" fill="#fff" fill-opacity=".392157"/><path d="m15.496094 4.507812c-.011719.195313-.019532.320313 0 .390626 0-.019532 0-.039063.003906-.0625.003906-.097657.003906-.207032-.003906-.328126zm-4.949219.054688c-.085937 1.4375.933594 3.441406 1.066406 5.597656.003907.007813.007813.015625.011719.023438-.015625-2.125-.996094-4.125-1.078125-5.621094zm-5.519531 1.476562c-.050782.664063.175781 1.175782.386718 1.496094.027344.046875.054688.082032.078126.121094.238281-.011719.175781-.105469-.078126-.488281-.171874-.257813-.351562-.640625-.386718-1.128907zm14.722656.820313c-.03125.445313-.167969.921875-.4375 1.386719-.882812 1.535156-4.382812 1.144531-6.699219 2.699218.214844.011719.429688.007813.644531-.003906 2.273438-1.125 5.25-.929687 6.054688-2.324218.347656-.597657.476562-1.210938.4375-1.757813zm-17.25 3.332031c-.078125.871094.410156 1.898438 1.5 2.527344 1.414062.816406 3.9375-.894531 6.503906-1.019531.222656-.109375.4375-.226563.648438-.363281-2.78125-.1875-5.617188 1.898437-7.152344 1.015624-.9375-.542968-1.429688-1.382812-1.5-2.160156zm9.539062 1.527344c-.035156.273438-.042968.546875-.035156.820312.003906-.152343.015625-.300781.035156-.453124 1.738282 2.308593 1.269532 6.007812 2.851563 6.921874 1.421875.820313 2.917969.417969 3.464844-.527343.371093-.648438.46875-1.214844.433593-1.6875-.03125.390625-.15625.832031-.433593 1.316406-.546875.949219-2.042969 1.347656-3.464844.527344-1.582031-.914063-1.113281-4.609375-2.851563-6.917969zm9.257813.976562c-.023437.246094-.089844.476563-.210937.679688-.753907 1.3125-1.800782 1.484375-2.414063 1.449219-.558594-.035157-.601563-.035157-.347656.355469.078125-.003907.195312.003906.347656.011718.613281.039063 1.660156-.136718 2.414063-1.445312.175781-.304688.242187-.671875.210937-1.050782zm-17.203125 3.242188c-.058594.90625.300781 1.746094.933594 2.109375 1.3125.757813 2.304687.382813 2.816406.046875.328125-.214844.445312-.292969.476562-.15625.03125-.546875.015626-.535156-.476562-.210938-.511719.335938-1.503906.710938-2.816406-.046874-.542969-.316407-.886719-.980469-.933594-1.742188zm4.226562 2.386719c0 .015625-.003906.027343-.003906.042969-.035156.609374.136719 1.65625 1.449219 2.414062.945313.546875 2.4375.148438 3.257813-1.273438.1875-.320312.242187-.695312.214843-1.117187-.019531.273437-.085937.523437-.214843.75-.820313 1.417969-2.3125 1.820313-3.257813 1.273437-1.101563-.636718-1.402344-1.476562-1.445313-2.089843zm0 0" fill-opacity=".235294"/><path d="m299.721378-163.338267c-20.164741-11.665552-53.411566-.833254-69.576689 27.164073-18.414908 31.996944 17.331678 86.825042 17.83163 146.236035-29.247207-51.661733-25.664215-117.072154-57.66116-135.570387-27.997326-16.165123-62.16073-8.915815-73.826283 11.248926-16.165123 27.997326-8.165887 49.161972-.999905 59.994271 7.165983 10.915624 7.165983 10.915624-5.832776 10.165695-12.998759-.833253-35.329959 2.833063-51.495082 30.83039-11.665553 20.248066-3.083039 52.07836 27.164072 69.576689 32.746873 18.91486 93.241096-25.580891 152.568764-21.581273-52.578312 33.330151-122.654954 28.163977-141.903116 61.410803-16.081797 27.997326-8.915815 62.16073 11.248926 73.826283 27.997327 16.165123 49.161972 8.165887 60.077596.999904 10.832299-7.165982 10.832299-7.165982 10.082371 5.832777-.749929 12.998758 2.916388 35.329959 30.913714 51.495082 20.164741 11.665553 51.995035 3.166364 69.493364-27.164072 19.498138-33.746778-28.497279-97.157389-20.997995-158.318215 37.079793 49.245297 27.080748 128.154428 60.827525 147.652566 30.330437 17.498329 62.244056 8.915816 73.909609-11.248925 16.081797-27.997327 8.165886-49.161972.916579-60.077597-7.165983-10.832299-7.165983-10.832299 5.832776-10.08237 13.082084.833254 35.413285-2.916388 51.495082-30.830389 11.665553-20.248067.833254-53.411566-27.164072-69.576689-33.246825-19.248162-91.324612 20.331391-153.568668 17.748305 49.411948-33.1635 124.071485-24.914288 142.90302-57.577835 17.498329-30.330437 8.99914-62.160731-11.248926-73.826283-27.997326-16.165123-49.161972-8.165887-59.994271-.999905-10.915624 7.165982-10.915624 7.165982-10.08237-5.832776.749928-12.998759-2.916389-35.32996-30.913715-51.495083zm0 0" fill="none" stroke="#212121" stroke-linecap="round" stroke-linejoin="round" stroke-width="3" transform="matrix(.0468795 0 0 .0468795 0 10.079087)"/></svg>

<?xml version="1.0" encoding="UTF-8"?>
<svg xmlns="http://www.w3.org/2000/svg" xmlns:xlink="http://www.w3.org/1999/xlink" width="24px" height="24px" viewBox="0 0 24 24" version="1.1">
<defs>
<radialGradient id="radial0" gradientUnits="userSpaceOnUse" cx="450.908936" cy="189.579361" fx="450.908936" fy="189.579361" r="21.166656" gradientTransform="matrix(0.000000130628,-0.0585994,-0.105479,-0.0000000761539,30.911658,47.696497)">
<stop offset="0" style="stop-color:rgb(0%,0%,0%);stop-opacity:0.313726;"/>
<stop offset="0.222222" style="stop-color:rgb(0%,0%,0%);stop-opacity:0.27451;"/>
<stop offset="1" style="stop-color:rgb(0%,0%,0%);stop-opacity:0;"/>
</radialGradient>
<radialGradient id="radial1" gradientUnits="userSpaceOnUse" cx="450.908936" cy="189.579361" fx="450.908936" fy="189.579361" r="21.166656" gradientTransform="matrix(-0.000000130628,0.0585994,0.105479,0.0000000761539,-9.577587,-5.645612)">
<stop offset="0" style="stop-color:rgb(0%,0%,0%);stop-opacity:0.313726;"/>
<stop offset="0.222222" style="stop-color:rgb(0%,0%,0%);stop-opacity:0.27451;"/>
<stop offset="1" style="stop-color:rgb(0%,0%,0%);stop-opacity:0;"/>
</radialGradient>
<radialGradient id="radial2" gradientUnits="userSpaceOnUse" cx="450.908936" cy="189.579361" fx="450.908936" fy="189.579361" r="21.166656" gradientTransform="matrix(-0.000000130628,-0.0585994,0.105479,-0.0000000761539,-9.577587,47.696497)">
<stop offset="0" style="stop-color:rgb(0%,0%,0%);stop-opacity:0.313726;"/>
<stop offset="0.222222" style="stop-color:rgb(0%,0%,0%);stop-opacity:0.27451;"/>
<stop offset="1" style="stop-color:rgb(0%,0%,0%);stop-opacity:0;"/>
</radialGradient>
<radialGradient id="radial3" gradientUnits="userSpaceOnUse" cx="450.908936" cy="189.579361" fx="450.908936" fy="189.579361" r="21.166656" gradientTransform="matrix(0.000000130628,0.0585994,-0.105479,0.0000000761539,30.911656,-5.645612)">
<stop offset="0" style="stop-color:rgb(0%,0%,0%);stop-opacity:0.313726;"/>
<stop offset="0.222222" style="stop-color:rgb(0%,0%,0%);stop-opacity:0.27451;"/>
<stop offset="1" style="stop-color:rgb(0%,0%,0%);stop-opacity:0;"/>
</radialGradient>
<linearGradient id="linear0" gradientUnits="userSpaceOnUse" x1="255.323059" y1="233.5" x2="255.323044" y2="254.666656" gradientTransform="matrix(0.00286287,0,0,0.0468795,9.936078,10.079088)">
<stop offset="0" style="stop-color:rgb(0%,0%,0%);stop-opacity:0.27451;"/>
<stop offset="1" style="stop-color:rgb(0%,0%,0%);stop-opacity:0;"/>
</linearGradient>
<linearGradient id="linear1" gradientUnits="userSpaceOnUse" x1="254" y1="233.5" x2="254" y2="-168.666672" gradientTransform="matrix(0.0473592,0,0,0.0473592,-0.121755,10.050648)">
<stop offset="0" style="stop-color:rgb(40.000001%,73.333335%,41.568628%);stop-opacity:1;"/>
<stop offset="1" style="stop-color:rgb(50.588238%,78.039217%,51.764709%);stop-opacity:1;"/>
</linearGradient>
</defs>
<g id="surface1">
<path style=" stroke:none;fill-rule:nonzero;fill:url(#radial0);" d="M 11.164062 21.027344 L 13.148438 21.027344 L 13.148438 20.03125 L 11.164062 20.03125 Z M 11.164062 21.027344 "/>
<path style=" stroke:none;fill-rule:nonzero;fill:url(#radial1);" d="M 10.171875 21.027344 L 8.1875 21.027344 L 8.1875 22.019531 L 10.171875 22.019531 Z M 10.171875 21.027344 "/>
<path style=" stroke:none;fill-rule:nonzero;fill:url(#radial2);" d="M 10.171875 21.027344 L 8.1875 21.027344 L 8.1875 20.03125 L 10.171875 20.03125 Z M 10.171875 21.027344 "/>
<path style=" stroke:none;fill-rule:nonzero;fill:url(#radial3);" d="M 11.164062 21.027344 L 13.148438 21.027344 L 13.148438 22.019531 L 11.164062 22.019531 Z M 11.164062 21.027344 "/>
<path style=" stroke:none;fill-rule:nonzero;fill:url(#linear0);" d="M 10.171875 20.777344 L 11.164062 20.777344 L 11.164062 22.019531 L 10.171875 22.019531 Z M 10.171875 20.777344 "/>
<path style=" stroke:none;fill-rule:nonzero;fill:url(#linear1);" d="M 14.050781 2.421875 C 13.105469 1.875 11.546875 2.382812 10.789062 3.695312 C 9.925781 5.195312 11.601562 7.765625 11.625 10.550781 C 10.253906 8.128906 10.421875 5.0625 8.921875 4.195312 C 7.609375 3.4375 6.007812 3.777344 5.460938 4.722656 C 4.703125 6.035156 5.078125 7.027344 5.414062 7.535156 C 5.75 8.046875 5.75 8.046875 5.140625 8.011719 C 4.53125 7.972656 3.484375 8.144531 2.726562 9.457031 C 2.179688 10.40625 2.582031 11.898438 4 12.71875 C 5.535156 13.605469 8.371094 11.519531 11.152344 11.707031 C 8.6875 13.269531 5.402344 13.027344 4.5 14.585938 C 3.746094 15.898438 4.082031 17.5 5.027344 18.046875 C 6.339844 18.804688 7.332031 18.429688 7.84375 18.09375 C 8.351562 17.757812 8.351562 17.757812 8.316406 18.367188 C 8.28125 18.976562 8.453125 20.023438 9.765625 20.78125 C 10.710938 21.328125 12.203125 20.929688 13.023438 19.507812 C 13.9375 17.925781 11.6875 14.953125 12.039062 12.085938 C 13.777344 14.394531 13.308594 18.09375 14.890625 19.007812 C 16.3125 19.828125 17.808594 19.425781 18.355469 18.480469 C 19.109375 17.167969 18.738281 16.175781 18.398438 15.664062 C 18.0625 15.15625 18.0625 15.15625 18.671875 15.191406 C 19.285156 15.230469 20.332031 15.054688 21.085938 13.746094 C 21.632812 12.796875 21.125 11.242188 19.8125 10.484375 C 18.253906 9.582031 15.53125 11.4375 12.613281 11.316406 C 14.929688 9.761719 18.429688 10.148438 19.3125 8.617188 C 20.132812 7.195312 19.734375 5.703125 18.785156 5.15625 C 17.472656 4.398438 16.480469 4.773438 15.972656 5.109375 C 15.460938 5.445312 15.460938 5.445312 15.5 4.835938 C 15.535156 4.226562 15.363281 3.179688 14.050781 2.421875 Z M 14.050781 2.421875 "/>
<path style=" stroke:none;fill-rule:nonzero;fill:rgb(100%,100%,100%);fill-opacity:0.392157;" d="M 13.195312 2.203125 C 12.332031 2.203125 11.347656 2.730469 10.789062 3.695312 C 10.59375 4.035156 10.527344 4.429688 10.542969 4.867188 C 10.558594 4.527344 10.632812 4.214844 10.789062 3.941406 C 11.546875 2.628906 13.105469 2.121094 14.050781 2.667969 C 15.1875 3.324219 15.46875 4.195312 15.5 4.8125 C 15.53125 4.203125 15.347656 3.171875 14.050781 2.421875 C 13.800781 2.277344 13.503906 2.207031 13.195312 2.203125 Z M 7.394531 3.78125 C 6.558594 3.777344 5.804688 4.128906 5.460938 4.722656 C 5.105469 5.339844 5 5.890625 5.023438 6.347656 C 5.042969 5.945312 5.167969 5.480469 5.460938 4.96875 C 6.007812 4.023438 7.609375 3.683594 8.921875 4.441406 C 10.421875 5.308594 10.253906 8.375 11.625 10.800781 C 11.625 10.714844 11.625 10.625 11.621094 10.539062 C 10.253906 8.117188 10.417969 5.058594 8.921875 4.195312 C 8.429688 3.910156 7.898438 3.78125 7.394531 3.78125 Z M 17.261719 4.710938 C 16.699219 4.71875 16.257812 4.917969 15.972656 5.109375 C 15.621094 5.339844 15.511719 5.410156 15.488281 5.238281 C 15.464844 5.6875 15.511719 5.660156 15.972656 5.355469 C 16.480469 5.019531 17.472656 4.644531 18.785156 5.402344 C 19.347656 5.726562 19.71875 6.386719 19.753906 7.167969 C 19.792969 6.28125 19.40625 5.515625 18.785156 5.15625 C 18.210938 4.824219 17.699219 4.707031 17.261719 4.710938 Z M 5.023438 8.007812 C 4.402344 8 3.4375 8.226562 2.726562 9.457031 C 2.550781 9.761719 2.472656 10.121094 2.496094 10.496094 C 2.511719 10.210938 2.589844 9.941406 2.726562 9.707031 C 3.484375 8.394531 4.53125 8.222656 5.140625 8.257812 C 5.640625 8.289062 5.730469 8.292969 5.5625 8.015625 C 5.488281 8.03125 5.351562 8.023438 5.140625 8.011719 C 5.101562 8.007812 5.0625 8.007812 5.023438 8.007812 Z M 18.773438 10.234375 C 17.273438 10.230469 15.210938 11.285156 13.011719 11.320312 C 12.875 11.394531 12.742188 11.476562 12.613281 11.5625 C 15.53125 11.683594 18.253906 9.828125 19.8125 10.730469 C 20.726562 11.257812 21.253906 12.175781 21.300781 13.003906 C 21.355469 12.117188 20.820312 11.066406 19.8125 10.484375 C 19.507812 10.308594 19.160156 10.238281 18.773438 10.234375 Z M 10.761719 11.941406 C 10.757812 11.941406 10.753906 11.941406 10.753906 11.941406 C 8.34375 13.25 5.355469 13.109375 4.5 14.585938 C 4.191406 15.121094 4.066406 15.707031 4.089844 16.246094 C 4.109375 15.777344 4.238281 15.289062 4.5 14.832031 C 5.402344 13.273438 8.6875 13.519531 11.152344 11.953125 C 11.023438 11.945312 10.890625 11.941406 10.761719 11.941406 Z M 12 12.84375 C 11.953125 15 13.175781 17.160156 13.242188 18.703125 C 13.3125 17.203125 12.046875 15.03125 12 12.84375 Z M 18.25 15.433594 C 18.101562 15.460938 18.179688 15.578125 18.398438 15.914062 C 18.578125 16.183594 18.765625 16.585938 18.792969 17.101562 C 18.824219 16.46875 18.605469 15.976562 18.398438 15.664062 C 18.339844 15.570312 18.289062 15.496094 18.25 15.433594 Z M 8.324219 18.210938 C 8.324219 18.257812 8.320312 18.308594 8.316406 18.367188 C 8.3125 18.449219 8.3125 18.539062 8.316406 18.636719 C 8.316406 18.628906 8.316406 18.621094 8.316406 18.613281 C 8.328125 18.421875 8.335938 18.289062 8.324219 18.210938 Z M 8.324219 18.210938 "/>
<path style=" stroke:none;fill-rule:nonzero;fill:rgb(0%,0%,0%);fill-opacity:0.235294;" d="M 15.496094 4.507812 C 15.484375 4.703125 15.476562 4.828125 15.496094 4.898438 C 15.496094 4.878906 15.496094 4.859375 15.5 4.835938 C 15.503906 4.738281 15.503906 4.628906 15.496094 4.507812 Z M 10.546875 4.5625 C 10.460938 6 11.480469 8.003906 11.613281 10.160156 C 11.617188 10.167969 11.621094 10.175781 11.625 10.183594 C 11.609375 8.058594 10.628906 6.058594 10.546875 4.5625 Z M 5.027344 6.039062 C 4.976562 6.703125 5.203125 7.214844 5.414062 7.535156 C 5.441406 7.582031 5.46875 7.617188 5.492188 7.65625 C 5.730469 7.644531 5.667969 7.550781 5.414062 7.167969 C 5.242188 6.910156 5.0625 6.527344 5.027344 6.039062 Z M 19.75 6.859375 C 19.71875 7.304688 19.582031 7.78125 19.3125 8.246094 C 18.429688 9.78125 14.929688 9.390625 12.613281 10.945312 C 12.828125 10.957031 13.042969 10.953125 13.257812 10.941406 C 15.53125 9.816406 18.507812 10.011719 19.3125 8.617188 C 19.660156 8.019531 19.789062 7.40625 19.75 6.859375 Z M 2.5 10.191406 C 2.421875 11.0625 2.910156 12.089844 4 12.71875 C 5.414062 13.535156 7.9375 11.824219 10.503906 11.699219 C 10.726562 11.589844 10.941406 11.472656 11.152344 11.335938 C 8.371094 11.148438 5.535156 13.234375 4 12.351562 C 3.0625 11.808594 2.570312 10.96875 2.5 10.191406 Z M 12.039062 11.71875 C 12.003906 11.992188 11.996094 12.265625 12.003906 12.539062 C 12.007812 12.386719 12.019531 12.238281 12.039062 12.085938 C 13.777344 14.394531 13.308594 18.09375 14.890625 19.007812 C 16.3125 19.828125 17.808594 19.425781 18.355469 18.480469 C 18.726562 17.832031 18.824219 17.265625 18.789062 16.792969 C 18.757812 17.183594 18.632812 17.625 18.355469 18.109375 C 17.808594 19.058594 16.3125 19.457031 14.890625 18.636719 C 13.308594 17.722656 13.777344 14.027344 12.039062 11.71875 Z M 21.296875 12.695312 C 21.273438 12.941406 21.207031 13.171875 21.085938 13.375 C 20.332031 14.6875 19.285156 14.859375 18.671875 14.824219 C 18.113281 14.789062 18.070312 14.789062 18.324219 15.179688 C 18.402344 15.175781 18.519531 15.183594 18.671875 15.191406 C 19.285156 15.230469 20.332031 15.054688 21.085938 13.746094 C 21.261719 13.441406 21.328125 13.074219 21.296875 12.695312 Z M 4.09375 15.9375 C 4.035156 16.84375 4.394531 17.683594 5.027344 18.046875 C 6.339844 18.804688 7.332031 18.429688 7.84375 18.09375 C 8.171875 17.878906 8.289062 17.800781 8.320312 17.9375 C 8.351562 17.390625 8.335938 17.402344 7.84375 17.726562 C 7.332031 18.0625 6.339844 18.4375 5.027344 17.679688 C 4.484375 17.363281 4.140625 16.699219 4.09375 15.9375 Z M 8.320312 18.324219 C 8.320312 18.339844 8.316406 18.351562 8.316406 18.367188 C 8.28125 18.976562 8.453125 20.023438 9.765625 20.78125 C 10.710938 21.328125 12.203125 20.929688 13.023438 19.507812 C 13.210938 19.1875 13.265625 18.8125 13.238281 18.390625 C 13.21875 18.664062 13.152344 18.914062 13.023438 19.140625 C 12.203125 20.558594 10.710938 20.960938 9.765625 20.414062 C 8.664062 19.777344 8.363281 18.9375 8.320312 18.324219 Z M 8.320312 18.324219 "/>
<path style="fill:none;stroke-width:3;stroke-linecap:round;stroke-linejoin:round;stroke:rgb(12.941177%,12.941177%,12.941177%);stroke-opacity:1;stroke-miterlimit:4;" d="M 299.721378 -163.338267 C 279.556637 -175.003819 246.309812 -164.171521 230.144689 -136.174194 C 211.729781 -104.17725 247.476367 -49.349152 247.976319 10.061841 C 218.729112 -41.599892 222.312104 -107.010313 190.315159 -125.508546 C 162.317833 -141.673669 128.154429 -134.424361 116.488876 -114.25962 C 100.323753 -86.262294 108.322989 -65.097648 115.488971 -54.265349 C 122.654954 -43.349725 122.654954 -43.349725 109.656195 -44.099654 C 96.657436 -44.932907 74.326236 -41.266591 58.161113 -13.269264 C 46.49556 6.978802 55.078074 38.809096 85.325185 56.307425 C 118.072058 75.222285 178.566281 30.726534 237.893949 34.726152 C 185.315637 68.056303 115.238995 62.890129 95.990833 96.136955 C 79.909036 124.134281 87.075018 158.297685 107.239759 169.963238 C 135.237086 186.128361 156.401731 178.129125 167.317355 170.963142 C 178.149654 163.79716 178.149654 163.79716 177.399726 176.795919 C 176.649797 189.794677 180.316114 212.125878 208.31344 228.291001 C 228.478181 239.956554 260.308475 231.457365 277.806804 201.126929 C 297.304942 167.380151 249.309525 103.96954 256.808809 42.808714 C 293.888602 92.054011 283.889557 170.963142 317.636334 190.46128 C 347.966771 207.959609 379.88039 199.377096 391.545943 179.212355 C 407.62774 151.215028 399.711829 130.050383 392.462522 119.134758 C 385.296539 108.302459 385.296539 108.302459 398.295298 109.052388 C 411.377382 109.885642 433.708583 106.136 449.79038 78.221999 C 461.455933 57.973932 450.623634 24.810433 422.626308 8.64531 C 389.379483 -10.602852 331.301696 28.976701 269.05764 26.393615 C 318.469588 -6.769885 393.129125 1.479327 411.96066 -31.18422 C 429.458989 -61.514657 420.9598 -93.344951 400.711734 -105.010503 C 372.714408 -121.175626 351.549762 -113.17639 340.717463 -106.010408 C 329.801839 -98.844426 329.801839 -98.844426 330.635093 -111.843184 C 331.385021 -124.841943 327.718704 -147.173144 299.721378 -163.338267 Z M 299.721378 -163.338267 " transform="matrix(0.0468795,0,0,0.0468795,0,10.079087)"/>
</g>
</svg>
